!!!COM: Mozart, Wolfgang Amadeus
!!!OTL: String Quartet No. 9 in A Major
!!!OMD: Menuetto
!!!OMV: 3
!!!SCT1: K<sup>1</sup> 169
!!!SCA: Chronologisch-thematisches Verzeichnis sämtlicher Tonwerke Wolfgang Amade Mozarts (L. von Köchel; 1862, 2/1905, 3/1937, 1947)
!!!SCT2: K<sup>6</sup> 169
!!!YOR: Breitkopf & Härtel Edition
!!!ENC: Frances Bennion
!!!CDT: 1756/1/27/-1791/12/5/
!!!OCY: Österreich
!!!YEC: Copyright (c) 1994, 2000 Center for Computer Assisted Research in the Humanities
!!!YEM: Rights to all derivative editions reserved.
!!!YEM: Refer to licensing agreement for further details.
!!!YEN: United States of America
**kern	**kern	**kern	**kern
*k[f#c#g#]	*k[f#c#g#]	*k[f#c#g#]	*k[f#c#g#]
*A:	*A:	*A:	*A:
*clefC	*clefF	*clefG	*clefG
*M3/4	*M3/4	*M3/4	*M3/4
4AA	4c#	2.r	2a
4C#	4e	.	.
4D	4f#	.	4b
=2	=2	=2	=2
4E	4B	2.r	4r
2r	2r	.	8g#
.	.	.	8a
.	.	.	4b
=3	=3	=3	=3
4A	4e	2A	2cc#
4F#	4f#	.	.
4D	4f#	4B	4dd
=4	=4	=4	=4
4E	4B	4r	4r
2r	2r	8G#	8b
.	.	8A	8cc#
.	.	4B	4dd
=5	=5	=5	=5
4r	2r	2c#	2ee
4A	.	.	.
4A#	4f#	4d	4ff#
=6	=6	=6	=6
4B	4d	4r	4r
4r	4r	8B	8dd
.	.	8G#	8b
4G#	4e	4c#	4ee
=7	=7	=7	=7
4A	4c#	4r	4r
4r	4r	8e	8cc#
.	.	8c#	8a
4D	4B	4f#	4dd
=8	=8	=8	=8
4E	2.E	2A	2cc#
4E	.	.	.
4EE	.	4G#	4b
=9	=9	=9	=9
4.G#	4.B	4.e	4.ee
8F#	8A	8f#	8ff#
4E	4G#	4g#	4gg#
=10	=10	=10	=10
4AA	4e	4c#	4cc#
4AA	4e	4c#	4cc#
4AA	4e	4c#	4cc#
=11	=11	=11	=11
4.A	4.c#	4.f#	4.ff#
8G#	8B	8g#	8gg#
4F#	4A	4a	4aa
=12	=12	=12	=12
2.BB	2.f#	2.d#	2.dd#
=13	=13	=13	=13
2.r	2.r	2.r	12bb
.	.	.	12ccc#
.	.	.	12bb
.	.	.	12bb
.	.	.	12ccc#
.	.	.	12bb
.	.	.	12bb
.	.	.	12ccc#
.	.	.	12bb
=14	=14	=14	=14
2.r	2.r	2.r	12ee
.	.	.	12ff#
.	.	.	12ee
.	.	.	12ee
.	.	.	12ff#
.	.	.	12ee
.	.	.	12ee
.	.	.	12ff#
.	.	.	12ee
=15	=15	=15	=15
12B	12b	12b	12b
12c#	12cc#	12cc#	12cc#
12B	12b	12b	12b
12B	12b	12b	12b
12c#	12cc#	12cc#	12cc#
12B	12b	12b	12b
12B	12b	12b	12b
12c#	12cc#	12cc#	12cc#
12B	12b	12b	12b
=16	=16	=16	=16
4E	4e	4e	4e
2r	2r	2r	2r
=17	=17	=17	=17
4E	2.G#	2.r	12b
.	.	.	12cc#
.	.	.	12b
4E	.	.	12dd
.	.	.	12ee
.	.	.	12dd
4E	.	.	12b
.	.	.	12cc#
.	.	.	12b
=18	=18	=18	=18
4E	4A	12cc#	4cc#
.	.	12dd	.
.	.	12cc#	.
4E	2r	12ee	2r
.	.	12ff#	.
.	.	12ee	.
4E	.	12cc#	.
.	.	12dd	.
.	.	12cc#	.
=19	=19	=19	=19
4E	2.d#	4a	12ff#
.	.	.	12gg#
.	.	.	12ff#
4E	.	2r	12aa
.	.	.	12bb
.	.	.	12aa
4E	.	.	12ff#
.	.	.	12gg#
.	.	.	12ff#
=20	=20	=20	=20
4E	4e	12gg#	4gg#
.	.	12aa	.
.	.	12gg#	.
4E	2r	12bb	2r
.	.	12ccc#	.
.	.	12bb	.
4E	.	12gg#	.
.	.	12aa	.
.	.	12gg#	.
=21	=21	=21	=21
4E	2.G#	4ee	12b
.	.	.	12cc#
.	.	.	12b
4E	.	2r	12dd
.	.	.	12ee
.	.	.	12dd
4E	.	.	12b
.	.	.	12cc#
.	.	.	12b
=22	=22	=22	=22
4AA	4A	2.r	12cc#
.	.	.	12dd
.	.	.	12cc#
2r	12e	.	12ee
.	12f#	.	12ff#
.	12e	.	12ee
.	12d	.	12dd
.	12e	.	12ee
.	12d	.	12dd
=23	=23	=23	=23
2.r	12c#	2.r	12cc#
.	12d	.	12dd
.	12c#	.	12cc#
.	12B	.	12b
.	12c#	.	12cc#
.	12B	.	12b
.	12A	.	12a
.	12B	.	12b
.	12A	.	12a
=24	=24	=24	=24
2.r	4E	2.r	4e
.	2r	.	2r
=25	=25	=25	=25
4AA	4c#	2.r	2a
4C#	4e	.	.
4D	4f#	.	4b
=26	=26	=26	=26
4E	4B	2.r	4r
2r	2r	.	8g#
.	.	.	8a
.	.	.	4b
=27	=27	=27	=27
4A	4e	2A	2cc#
4F#	4f#	.	.
4D	4f#	4B	4dd
=28	=28	=28	=28
4E	4e	4r	4r
2r	2r	8G#	8b
.	.	8A	8cc#
.	.	4B	4dd
=29	=29	=29	=29
2.AA	2.A	4.c#	4.ee
.	.	8e	8cc#
.	.	4c#	4a
=30	=30	=30	=30
2.D	4r	4A	4f#
.	4d	4A	4f#
.	4d	4A	4f#
=31	=31	=31	=31
2.BB	4r	2f#	4.b
.	4d	.	.
.	.	.	8dd
.	4B	4d	4ff#
=32	=32	=32	=32
2.E	2.G#	2.B	2.g#
=33	=33	=33	=33
2.r	2.r	2.r	12ee
.	.	.	12ff#
.	.	.	12ee
.	.	.	12ee
.	.	.	12ff#
.	.	.	12ee
.	.	.	12ee
.	.	.	12ff#
.	.	.	12ee
=34	=34	=34	=34
2.r	2.r	2.r	12a
.	.	.	12b
.	.	.	12a
.	.	.	12a
.	.	.	12b
.	.	.	12a
.	.	.	12a
.	.	.	12b
.	.	.	12a
=35	=35	=35	=35
12E	12e	12e	12e
12F#	12f#	12f#	12f#
12E	12e	12e	12e
12E	12e	12e	12e
12F#	12f#	12f#	12f#
12E	12e	12e	12e
12E	12e	12e	12e
12F#	12f#	12f#	12f#
12E	12e	12e	12e
=36	=36	=36	=36
4AA	4A	4A	4A
2r	2r	2r	2r
=37	=37	=37	=37
2.r	2.r	8A#	8a#
.	.	8r	8r
.	.	8B	8b
.	.	8r	8r
.	.	8c#	8cc#
.	.	8r	8r
=38	=38	=38	=38
2.r	2.r	8A#	8a#
.	.	8r	8r
.	.	8B	8b
.	.	8r	8r
.	.	8c#	8cc#
.	.	8r	8r
=39	=39	=39	=39
4r	4r	2A	2a
4F#	4f#	.	.
4D#	4d#	4B	4b
=40	=40	=40	=40
4E	4e	2.G#	2.g#
4BB	4B	.	.
4EE	4E	.	.
=41	=41	=41	=41
2.r	2.r	8A#	8a#
.	.	8r	8r
.	.	8B	8b
.	.	8r	8r
.	.	8c#	8cc#
.	.	8r	8r
=42	=42	=42	=42
2.r	2.r	8A#	8a#
.	.	8r	8r
.	.	8B	8b
.	.	8r	8r
.	.	8c#	8cc#
.	.	8r	8r
=43	=43	=43	=43
4r	4r	2d#	2dd#
4F#	4f#	.	.
4FF#	4F#	4c#	4cc#
=44	=44	=44	=44
4BB	4B	2B	2b
4F#	4f#	.	.
4B	4b	4r	4r
=45	=45	=45	=45
2.r	2.r	8d#	8dd#
.	.	8r	8r
.	.	8e	8ee
.	.	8r	8r
.	.	8f#	8ff#
.	.	8r	8r
=46	=46	=46	=46
8B	8b	4d#	4dd#
8r	8r	.	.
8F#	8f#	2r	2r
8r	8r	.	.
8BB	8B	.	.
8r	8r	.	.
=47	=47	=47	=47
2.r	2.r	8d#	8dd#
.	.	8r	8r
.	.	8e	8ee
.	.	8r	8r
.	.	8f#	8ff#
.	.	8r	8r
=48	=48	=48	=48
8B	8b	4d#	4dd#
8r	8r	.	.
8F#	8f#	2r	2r
8r	8r	.	.
8BB	8B	.	.
8r	8r	.	.
=49	=49	=49	=49
2.r	2.r	8A#	8a#
.	.	8r	8r
.	.	8B	8b
.	.	8r	8r
.	.	8c#	8cc#
.	.	8r	8r
=50	=50	=50	=50
2.r	2.r	8A#	8a#
.	.	8r	8r
.	.	8B	8b
.	.	8r	8r
.	.	8c#	8cc#
.	.	8r	8r
=51	=51	=51	=51
4r	4r	2A	2a
4F#	4f#	.	.
4D#	4d#	4B	4b
=52	=52	=52	=52
4E	4e	2G#	2g#
4BB	4B	.	.
4EE	4E	4r	4r
==	==	==	==
*-	*-	*-	*-
!!!RWG1: This file contains only pitch and duration data.
!!!RWG2: Transposing instruments are not transposed.
!!!RWG3: Spines may have incompatible meters.
!!!RWG4: Durations of rests and tied notes may be interpreted.
!!!RWG: Key is interpreted using the Humdrum key tool.
!!!AFT: stage1
!!!END: 1997/04/15
!!!KEY: 905945054
!!!EMD: Converted from MuseData to Humdrum Dec 16, 2000, by Andreas Kornstaedt using muse2kern.
!!!EMD: Manual editing by Craig Sapp, Nov 2001
